Newaita-dark/apps/22/spacefm.svg

<?xml version="1.0" encoding="UTF-8"?>
<svg xmlns="http://www.w3.org/2000/svg" xmlns:xlink="http://www.w3.org/1999/xlink" width="22pt" height="22pt" viewBox="0 0 22 22" version="1.1">
<defs>
<linearGradient id="linear0" gradientUnits="userSpaceOnUse" x1="254" y1="233.5" x2="254" y2="254.666672" gradientTransform="matrix(0.0429729,0,0,0.0429729,-0.00000262285,9.239165)">
<stop offset="0" style="stop-color:rgb(0%,0%,0%);stop-opacity:0.27451;"/>
<stop offset="1" style="stop-color:rgb(0%,0%,0%);stop-opacity:0;"/>
</linearGradient>
<radialGradient id="radial0" gradientUnits="userSpaceOnUse" cx="450.908936" cy="189.579361" fx="450.908936" fy="189.579361" r="21.166656" gradientTransform="matrix(0.000000119742,-0.0537161,-0.0966889,-0.0000000698078,36.522014,43.721791)">
<stop offset="0" style="stop-color:rgb(0%,0%,0%);stop-opacity:0.313725;"/>
<stop offset="0.222222" style="stop-color:rgb(0%,0%,0%);stop-opacity:0.27451;"/>
<stop offset="1" style="stop-color:rgb(0%,0%,0%);stop-opacity:0;"/>
</radialGradient>
<radialGradient id="radial1" gradientUnits="userSpaceOnUse" cx="450.908936" cy="189.579361" fx="450.908936" fy="189.579361" r="21.166656" gradientTransform="matrix(-0.000000119742,0.0537161,0.0966889,0.0000000698078,-14.578108,-5.175142)">
<stop offset="0" style="stop-color:rgb(0%,0%,0%);stop-opacity:0.313725;"/>
<stop offset="0.222222" style="stop-color:rgb(0%,0%,0%);stop-opacity:0.27451;"/>
<stop offset="1" style="stop-color:rgb(0%,0%,0%);stop-opacity:0;"/>
</radialGradient>
<radialGradient id="radial2" gradientUnits="userSpaceOnUse" cx="450.908936" cy="189.579361" fx="450.908936" fy="189.579361" r="21.166656" gradientTransform="matrix(-0.000000119742,-0.0537161,0.0966889,-0.0000000698078,-14.578108,43.721791)">
<stop offset="0" style="stop-color:rgb(0%,0%,0%);stop-opacity:0.313725;"/>
<stop offset="0.222222" style="stop-color:rgb(0%,0%,0%);stop-opacity:0.27451;"/>
<stop offset="1" style="stop-color:rgb(0%,0%,0%);stop-opacity:0;"/>
</radialGradient>
<radialGradient id="radial3" gradientUnits="userSpaceOnUse" cx="450.908936" cy="189.579361" fx="450.908936" fy="189.579361" r="21.166656" gradientTransform="matrix(0.000000119742,0.0537161,-0.0966889,0.0000000698078,36.522013,-5.175142)">
<stop offset="0" style="stop-color:rgb(0%,0%,0%);stop-opacity:0.313725;"/>
<stop offset="0.222222" style="stop-color:rgb(0%,0%,0%);stop-opacity:0.27451;"/>
<stop offset="1" style="stop-color:rgb(0%,0%,0%);stop-opacity:0;"/>
</radialGradient>
<linearGradient id="linear1" gradientUnits="userSpaceOnUse" x1="254" y1="233.5" x2="254" y2="-168.666672" gradientTransform="matrix(0.0429729,0,0,0.0429729,0,9.239163)">
<stop offset="0" style="stop-color:rgb(16.078431%,38.431373%,100%);stop-opacity:1;"/>
<stop offset="1" style="stop-color:rgb(16.078431%,47.45098%,100%);stop-opacity:1;"/>
</linearGradient>
<linearGradient id="linear2" gradientUnits="userSpaceOnUse" x1="880" y1="816.413147" x2="880" y2="1456.413086" gradientTransform="matrix(0.342072,0,0,-0.342072,-74.389481,418.052887)">
<stop offset="0" style="stop-color:rgb(74.117647%,74.117647%,74.117647%);stop-opacity:1;"/>
<stop offset="1" style="stop-color:rgb(87.843137%,87.843137%,87.843137%);stop-opacity:1;"/>
</linearGradient>
</defs>
<g id="surface1">
<path style=" stroke:none;fill-rule:nonzero;fill:url(#linear0);" d="M 3.523438 19.273438 L 18.417969 19.273438 L 18.417969 20.183594 L 3.523438 20.183594 Z M 3.523438 19.273438 "/>
<path style=" stroke:none;fill-rule:nonzero;fill:url(#radial0);" d="M 18.417969 19.273438 L 20.238281 19.273438 L 20.238281 18.363281 L 18.417969 18.363281 Z M 18.417969 19.273438 "/>
<path style=" stroke:none;fill-rule:nonzero;fill:url(#radial1);" d="M 3.523438 19.273438 L 1.707031 19.273438 L 1.707031 20.183594 L 3.523438 20.183594 Z M 3.523438 19.273438 "/>
<path style=" stroke:none;fill-rule:nonzero;fill:url(#radial2);" d="M 3.523438 19.273438 L 1.707031 19.273438 L 1.707031 18.363281 L 3.523438 18.363281 Z M 3.523438 19.273438 "/>
<path style=" stroke:none;fill-rule:nonzero;fill:url(#radial3);" d="M 18.417969 19.273438 L 20.238281 19.273438 L 20.238281 20.183594 L 18.417969 20.183594 Z M 18.417969 19.273438 "/>
<path style=" stroke:none;fill-rule:nonzero;fill:url(#linear1);" d="M 2.5 1.992188 C 2.488281 1.992188 2.476562 1.992188 2.464844 1.992188 C 2.441406 1.992188 2.417969 1.996094 2.398438 2 C 2.363281 2.003906 2.332031 2.011719 2.296875 2.023438 C 2.277344 2.027344 2.253906 2.035156 2.234375 2.042969 C 2.195312 2.0625 2.15625 2.082031 2.121094 2.105469 C 2.101562 2.121094 2.082031 2.132812 2.066406 2.144531 C 2.050781 2.160156 2.035156 2.175781 2.019531 2.191406 C 2.003906 2.207031 1.988281 2.222656 1.972656 2.238281 C 1.96875 2.246094 1.960938 2.253906 1.953125 2.265625 C 1.941406 2.28125 1.929688 2.300781 1.917969 2.320312 C 1.902344 2.347656 1.886719 2.375 1.871094 2.40625 C 1.867188 2.417969 1.863281 2.429688 1.859375 2.4375 C 1.855469 2.449219 1.851562 2.460938 1.851562 2.46875 C 1.847656 2.480469 1.84375 2.492188 1.839844 2.503906 C 1.835938 2.523438 1.832031 2.546875 1.828125 2.570312 C 1.824219 2.582031 1.824219 2.59375 1.824219 2.601562 C 1.820312 2.625 1.820312 2.648438 1.820312 2.671875 L 1.820312 18.589844 C 1.820312 18.96875 2.125 19.273438 2.5 19.273438 L 19.328125 19.273438 C 19.707031 19.273438 20.011719 18.96875 20.011719 18.589844 L 20.011719 2.671875 C 20.011719 2.53125 19.96875 2.398438 19.894531 2.292969 C 19.882812 2.273438 19.871094 2.253906 19.855469 2.238281 C 19.839844 2.222656 19.828125 2.207031 19.8125 2.191406 C 19.796875 2.175781 19.78125 2.160156 19.761719 2.144531 C 19.746094 2.132812 19.730469 2.121094 19.710938 2.105469 C 19.675781 2.082031 19.636719 2.0625 19.59375 2.042969 C 19.574219 2.035156 19.554688 2.027344 19.53125 2.023438 C 19.5 2.011719 19.46875 2.003906 19.433594 2 C 19.410156 1.996094 19.386719 1.992188 19.363281 1.992188 C 19.351562 1.992188 19.339844 1.992188 19.328125 1.992188 Z M 2.5 1.992188 "/>
<path style=" stroke:none;fill-rule:nonzero;fill:rgb(100%,100%,100%);fill-opacity:0.392157;" d="M 2.5 1.992188 C 2.125 1.992188 1.820312 2.296875 1.820312 2.671875 L 1.820312 2.785156 C 1.820312 2.410156 2.125 2.105469 2.5 2.105469 L 19.328125 2.105469 C 19.707031 2.105469 20.011719 2.410156 20.011719 2.785156 L 20.011719 2.671875 C 20.011719 2.296875 19.707031 1.992188 19.328125 1.992188 Z M 2.5 1.992188 "/>
<path style=" stroke:none;fill-rule:nonzero;fill:rgb(1.176471%,1.176471%,1.176471%);fill-opacity:0.235294;" d="M 2.5 19.273438 C 2.125 19.273438 1.820312 18.96875 1.820312 18.589844 L 1.820312 18.476562 C 1.820312 18.855469 2.125 19.160156 2.5 19.160156 L 19.328125 19.160156 C 19.707031 19.160156 20.011719 18.855469 20.011719 18.476562 L 20.011719 18.589844 C 20.011719 18.96875 19.707031 19.273438 19.328125 19.273438 Z M 2.5 19.273438 "/>
<path style=" stroke:none;fill-rule:nonzero;fill:rgb(12.941177%,12.941177%,12.941177%);fill-opacity:1;" d="M 2.5 1.925781 C 2.089844 1.925781 1.753906 2.261719 1.753906 2.671875 L 1.753906 18.589844 C 1.753906 19.003906 2.089844 19.335938 2.5 19.335938 L 19.328125 19.335938 C 19.742188 19.335938 20.074219 19.003906 20.074219 18.589844 L 20.074219 2.671875 C 20.074219 2.261719 19.742188 1.925781 19.328125 1.925781 Z M 2.5 2.054688 L 19.328125 2.054688 C 19.671875 2.054688 19.945312 2.328125 19.945312 2.671875 L 19.945312 18.589844 C 19.945312 18.933594 19.671875 19.207031 19.328125 19.207031 L 2.5 19.207031 C 2.15625 19.207031 1.882812 18.933594 1.882812 18.589844 L 1.882812 2.671875 C 1.882812 2.328125 2.15625 2.054688 2.5 2.054688 Z M 2.5 2.054688 "/>
<path style="fill-rule:nonzero;fill:url(#linear2);stroke-width:3;stroke-linecap:round;stroke-linejoin:miter;stroke:rgb(12.941177%,12.941177%,12.941177%);stroke-opacity:1;stroke-miterlimit:4;" d="M 253.975747 -80.103791 L 123.98816 42.975365 L 178.710207 42.975365 L 178.710207 125.512937 C 178.528406 133.148572 184.891435 139.238899 192.436169 139.238899 C 215.161271 139.238899 265.974601 139.238899 315.606225 139.238899 C 323.150959 139.238899 329.241286 133.148572 329.241286 125.512937 L 329.241286 42.975365 L 377.145803 42.975365 L 336.058817 1.97928 L 336.058817 -52.742768 L 308.697794 -52.742768 L 308.697794 -25.381744 Z M 253.975747 -80.103791 " transform="matrix(0.0429729,0,0,0.0429729,0,9.239163)"/>
</g>
</svg>

<svg xmlns="http://www.w3.org/2000/svg" width="22pt" height="22pt" viewBox="0 0 22 22"><defs><linearGradient id="a" gradientUnits="userSpaceOnUse" x1="254" y1="233.5" x2="254" y2="254.667" gradientTransform="matrix(.04297 0 0 .04297 0 9.24)"><stop offset="0" stop-opacity=".275"/><stop offset="1" stop-opacity="0"/></linearGradient><radialGradient id="b" gradientUnits="userSpaceOnUse" cx="450.909" cy="189.579" fx="450.909" fy="189.579" r="21.167" gradientTransform="matrix(0 -.05372 -.09669 0 36.522 43.722)"><stop offset="0" stop-opacity=".314"/><stop offset=".222" stop-opacity=".275"/><stop offset="1" stop-opacity="0"/></radialGradient><radialGradient id="c" gradientUnits="userSpaceOnUse" cx="450.909" cy="189.579" fx="450.909" fy="189.579" r="21.167" gradientTransform="matrix(0 .05372 .09669 0 -14.578 -5.175)"><stop offset="0" stop-opacity=".314"/><stop offset=".222" stop-opacity=".275"/><stop offset="1" stop-opacity="0"/></radialGradient><radialGradient id="d" gradientUnits="userSpaceOnUse" cx="450.909" cy="189.579" fx="450.909" fy="189.579" r="21.167" gradientTransform="matrix(0 -.05372 .09669 0 -14.578 43.722)"><stop offset="0" stop-opacity=".314"/><stop offset=".222" stop-opacity=".275"/><stop offset="1" stop-opacity="0"/></radialGradient><radialGradient id="e" gradientUnits="userSpaceOnUse" cx="450.909" cy="189.579" fx="450.909" fy="189.579" r="21.167" gradientTransform="matrix(0 .05372 -.09669 0 36.522 -5.175)"><stop offset="0" stop-opacity=".314"/><stop offset=".222" stop-opacity=".275"/><stop offset="1" stop-opacity="0"/></radialGradient><linearGradient id="f" gradientUnits="userSpaceOnUse" x1="254" y1="233.5" x2="254" y2="-168.667" gradientTransform="matrix(.04297 0 0 .04297 0 9.24)"><stop offset="0" stop-color="#2962ff"/><stop offset="1" stop-color="#2979ff"/></linearGradient><linearGradient id="g" gradientUnits="userSpaceOnUse" x1="880" y1="816.413" x2="880" y2="1456.413" gradientTransform="matrix(.34207 0 0 -.34207 -74.39 418.053)"><stop offset="0" stop-color="#bdbdbd"/><stop offset="1" stop-color="#e0e0e0"/></linearGradient></defs><path d="M3.523 19.273h14.895v.91H3.523zm0 0" fill="url(#a)"/><path d="M18.418 19.273h1.82v-.91h-1.82zm0 0" fill="url(#b)"/><path d="M3.523 19.273H1.707v.91h1.816zm0 0" fill="url(#c)"/><path d="M3.523 19.273H1.707v-.91h1.816zm0 0" fill="url(#d)"/><path d="M18.418 19.273h1.82v.91h-1.82zm0 0" fill="url(#e)"/><path d="M2.5 1.992h-.035A.344.344 0 0 0 2.398 2a.477.477 0 0 0-.101.023.384.384 0 0 0-.063.02c-.039.02-.078.039-.113.062-.02.016-.039.028-.055.04l-.046.046-.047.047c-.004.008-.012.016-.02.028-.012.015-.023.035-.035.054l-.047.086a.27.27 0 0 1-.012.031c-.004.012-.007.024-.007.032l-.012.035a2.23 2.23 0 0 0-.012.066c-.004.012-.004.024-.004.032-.004.023-.004.046-.004.07V18.59c0 .379.305.683.68.683h16.828a.682.682 0 0 0 .684-.683V2.672a.66.66 0 0 0-.117-.379c-.012-.02-.024-.04-.04-.055-.015-.015-.027-.031-.043-.047-.015-.015-.03-.03-.05-.046l-.051-.04a.826.826 0 0 0-.117-.062.293.293 0 0 0-.063-.02.397.397 0 0 0-.097-.023c-.024-.004-.047-.008-.07-.008h-.036zm0 0" fill="url(#f)"/><path d="M2.5 1.992a.68.68 0 0 0-.68.68v.113a.68.68 0 0 1 .68-.68h16.828c.379 0 .684.305.684.68v-.113a.681.681 0 0 0-.684-.68zm0 0" fill="#fff" fill-opacity=".392"/><path d="M2.5 19.273a.681.681 0 0 1-.68-.683v-.113c0 .378.305.683.68.683h16.828a.682.682 0 0 0 .684-.683v.113a.682.682 0 0 1-.684.683zm0 0" fill="#030303" fill-opacity=".235"/><path d="M2.5 1.926a.749.749 0 0 0-.746.746V18.59c0 .414.336.746.746.746h16.828a.744.744 0 0 0 .746-.746V2.672a.746.746 0 0 0-.746-.746zm0 .129h16.828c.344 0 .617.273.617.617V18.59a.614.614 0 0 1-.617.617H2.5a.614.614 0 0 1-.617-.617V2.672c0-.344.273-.617.617-.617zm0 0" fill="#212121"/><path d="M253.976-80.104L123.988 42.976h54.722v82.537c-.182 7.636 6.181 13.726 13.726 13.726h123.17c7.545 0 13.635-6.09 13.635-13.726V42.975h47.905L336.059 1.98v-54.722h-27.361v27.361zm0 0" transform="matrix(.04297 0 0 .04297 0 9.24)" fill="url(#g)" stroke-width="3" stroke-linecap="round" stroke="#212121"/></svg>
